public/img/icons/prize7.svg

<svg width="37" height="24" viewBox="0 0 37 24" fill="none" xmlns="http://www.w3.org/2000/svg">
<path d="M6.62822 13.4401L0.932224 13.4401L0.932129 8.70414L6.62813 8.70414L6.62801 2.91214L11.556 2.91214L11.5561 8.70414L17.2521 8.70414L17.2522 13.4401L11.5562 13.4401L11.5563 19.2321H6.62834L6.62822 13.4401Z" fill="url(#paint0_linear_683_10326)"/>
<path d="M28.1349 23.0081C26.5989 23.0081 25.3082 22.8161 24.2629 22.4321C23.2176 22.0268 22.3642 21.4935 21.7029 20.8321C21.0629 20.1708 20.5935 19.4028 20.2948 18.5281C19.9961 17.6321 19.8361 16.6935 19.8148 15.7121H25.3828C25.4255 16.5655 25.6921 17.2588 26.1828 17.7921C26.6735 18.3041 27.3242 18.5601 28.1348 18.5601C29.1375 18.5601 29.8522 18.2508 30.2788 17.6321C30.7268 16.9921 30.9508 16.0961 30.9508 14.9441C30.9507 13.7281 30.684 12.8855 30.1507 12.4161C29.6174 11.9255 28.9454 11.6801 28.1347 11.6801C27.004 11.6801 26.1294 12.1175 25.5107 12.9921H20.2947L20.2945 0.192139L35.5265 0.192139L35.5266 4.89614L25.8306 4.89614L25.8306 8.03214C26.7266 7.37081 27.9533 7.04014 29.5106 7.04014C30.5773 7.04014 31.5586 7.21081 32.4546 7.55214C33.3506 7.87214 34.1186 8.36281 34.7586 9.02414C35.3987 9.68547 35.8893 10.5068 36.2307 11.4881C36.5934 12.4481 36.7747 13.5788 36.7748 14.8801C36.7748 16.1175 36.5721 17.2375 36.1668 18.2401C35.7615 19.2428 35.1855 20.0961 34.4389 20.8001C33.6922 21.5041 32.7856 22.0481 31.7189 22.4321C30.6522 22.8161 29.4576 23.0081 28.1349 23.0081Z" fill="url(#paint1_linear_683_10326)"/>
<defs>
<linearGradient id="paint0_linear_683_10326" x1="1.85115" y1="25.1362" x2="42.3113" y2="-20.4591" gradientUnits="userSpaceOnUse">
<stop offset="0.0989583" stop-color="#FFC62F"/>
<stop offset="0.3424" stop-color="#FFEAA5"/>
<stop offset="0.482125" stop-color="#EBD084"/>
<stop offset="1" stop-color="#A37207"/>
</linearGradient>
<linearGradient id="paint1_linear_683_10326" x1="1.85115" y1="25.1362" x2="42.3113" y2="-20.4591" gradientUnits="userSpaceOnUse">
<stop offset="0.0989583" stop-color="#FFC62F"/>
<stop offset="0.3424" stop-color="#FFEAA5"/>
<stop offset="0.482125" stop-color="#EBD084"/>
<stop offset="1" stop-color="#A37207"/>
</linearGradient>
</defs>
</svg>

<svg width="37" height="24" fill="none" xmlns="http://www.w3.org/2000/svg"><path d="M6.628 13.44H.932V8.704h5.696V2.912h4.928v5.792h5.696v4.736h-5.696v5.792H6.628V13.44Z" fill="url(#a)"/><path d="M28.135 23.008c-1.536 0-2.827-.192-3.872-.576-1.045-.405-1.899-.938-2.56-1.6a6.114 6.114 0 0 1-1.408-2.304 9.504 9.504 0 0 1-.48-2.816h5.568c.043.854.31 1.547.8 2.08.49.512 1.141.768 1.952.768 1.002 0 1.717-.31 2.144-.928.448-.64.672-1.536.672-2.688 0-1.216-.267-2.059-.8-2.528-.534-.49-1.206-.736-2.016-.736-1.131 0-2.006.438-2.624 1.312h-5.216V.192h15.231v4.704h-9.695v3.136c.896-.661 2.122-.992 3.68-.992 1.066 0 2.048.17 2.944.512.896.32 1.664.81 2.304 1.472.64.661 1.13 1.483 1.472 2.464.362.96.544 2.09.544 3.392 0 1.237-.203 2.357-.608 3.36a7.15 7.15 0 0 1-1.728 2.56c-.747.704-1.653 1.248-2.72 1.632-1.067.384-2.261.576-3.584.576Z" fill="url(#b)"/><defs><linearGradient id="a" x1="1.851" y1="25.136" x2="42.311" y2="-20.459" gradientUnits="userSpaceOnUse"><stop offset=".099" stop-color="#FFC62F"/><stop offset=".342" stop-color="#FFEAA5"/><stop offset=".482" stop-color="#EBD084"/><stop offset="1" stop-color="#A37207"/></linearGradient><linearGradient id="b" x1="1.851" y1="25.136" x2="42.311" y2="-20.459" gradientUnits="userSpaceOnUse"><stop offset=".099" stop-color="#FFC62F"/><stop offset=".342" stop-color="#FFEAA5"/><stop offset=".482" stop-color="#EBD084"/><stop offset="1" stop-color="#A37207"/></linearGradient></defs></svg>
